X: 59
T:Out on the Ocean
T:Portroe Jig
R:Jig
M:6/8
L:1/8
Q:3/8=120
K:G
|:~B3 BAG|BdB ~A3|GED G2A|~B3 AGE|
D2B BAG|BdB ~A3|GED G2A|[1 BGF G3:|[2 BGF GBd|
|:ege edB|ege edB|ded dBd|gfe dBA|
G2A B2d|ege dBA|GED G2A|[1 BGF GBd:|[2 BGF G3|
